dist/svg/firewall-o.svg

<!-- Generated by Trend Micro Style Portal -->
<svg version="1.1" xmlns="http://www.w3.org/2000/svg" width="16" height="16" viewBox="0 0 16 16">
  <title>firewall-o</title>
  <path fill="rgb(34,34,34)" d="M0 1v14h16v-14zM1 2h7v3h-7zM11 10h-6v-4h6zM4 6v4h-3v-4zM1 11h6v3h-6zM8 14v-3h7v3zM15 10h-3v-4h3zM9 5v-3h6v3z"></path>
</svg>

<svg width="16" height="16" viewBox="0 0 16 16" fill="rgb(34, 34, 34)" xmlns="http://www.w3.org/2000/svg"><title>firewall-o</title><path d="M0 1V15H16V1H0ZM1 2H8V5H1V2ZM11 10H5V6H11V10ZM4 6V10H1V6H4ZM1 11H7V14H1V11ZM8 14V11H15V14H8ZM15 10H12V6H15V10ZM9 5V2H15V5H9Z" fill="rgb(34, 34, 34)" fill-opacity="1.00"/></svg>
